src/topics/icons/gitter.svg

<svg height="256" preserveAspectRatio="xMidYMid" viewBox="0 0 256 256" width="256" xmlns="http://www.w3.org/2000/svg" xmlns:xlink="http://www.w3.org/1999/xlink"><linearGradient id="a" x1="50%" x2="50%" y1="0%" y2="100%"><stop offset="0" stop-color="#fb0766"/><stop offset="1" stop-color="#c50948"/></linearGradient><path d="m0 0h256v256h-256z" fill="url(#a)"/><path d="m83.914 62.873h12.525v82.661h-12.525zm76.149 20.039h12.524v62.622h-12.524zm-50.599 0h12.524v110.466h-12.524zm25.049 0h12.525v110.466h-12.525z" fill="#fff"/></svg>

<?xml version="1.0" encoding="UTF-8" standalone="no"?>
<svg width="256px" height="256px" viewBox="0 0 256 256" version="1.1" xmlns="http://www.w3.org/2000/svg" xmlns:xlink="http://www.w3.org/1999/xlink" preserveAspectRatio="xMidYMid">
    <defs>
        <linearGradient x1="50%" y1="0%" x2="50%" y2="100%" id="linearGradient-1">
            <stop stop-color="#FB0766" offset="0%"></stop>
            <stop stop-color="#C50948" offset="100%"></stop>
        </linearGradient>
    </defs>
	<g>
		<path d="M0,0 L256,0 L256,256 L0,256 L0,0 Z" fill="url(#linearGradient-1)"></path>
		<path d="M83.914,62.873 L96.439,62.873 L96.439,145.534 L83.914,145.534 L83.914,62.873 Z M160.063,82.912 L172.587,82.912 L172.587,145.534 L160.063,145.534 L160.063,82.912 Z M109.464,82.912 L121.988,82.912 L121.988,193.378 L109.464,193.378 L109.464,82.912 Z M134.513,82.912 L147.038,82.912 L147.038,193.378 L134.513,193.378 L134.513,82.912 Z" fill="#FFFFFF"></path>
	</g>
</svg>
